images/logo.svg

<?xml version="1.0" encoding="UTF-8" standalone="no"?>
<!-- Generator: Adobe Illustrator 16.0.0, SVG Export Plug-In . SVG Version: 6.00 Build 0)  -->

<svg
   xmlns:dc="http://purl.org/dc/elements/1.1/"
   xmlns:cc="http://creativecommons.org/ns#"
   xmlns:rdf="http://www.w3.org/1999/02/22-rdf-syntax-ns#"
   xmlns:svg="http://www.w3.org/2000/svg"
   xmlns="http://www.w3.org/2000/svg"
   xmlns:sodipodi="http://sodipodi.sourceforge.net/DTD/sodipodi-0.dtd"
   xmlns:inkscape="http://www.inkscape.org/namespaces/inkscape"
   version="1.1"
   id="Layer_1"
   x="0px"
   y="0px"
   width="185.181"
   height="185.18201"
   viewBox="0 0 185.181 185.18201"
   xml:space="preserve"
   sodipodi:docname="logo.svg"
   inkscape:version="0.92.2 5c3e80d, 2017-08-06"><metadata
     id="metadata131"><rdf:RDF><cc:Work
         rdf:about=""><dc:format>image/svg+xml</dc:format><dc:type
           rdf:resource="http://purl.org/dc/dcmitype/StillImage" /><dc:title></dc:title></cc:Work></rdf:RDF></metadata><defs
     id="defs129" /><sodipodi:namedview
     pagecolor="#ffffff"
     bordercolor="#666666"
     borderopacity="1"
     objecttolerance="10"
     gridtolerance="10"
     guidetolerance="10"
     inkscape:pageopacity="0"
     inkscape:pageshadow="2"
     inkscape:window-width="2560"
     inkscape:window-height="1395"
     id="namedview127"
     showgrid="false"
     showborder="true"
     height="257.09799px"
     fit-margin-top="0"
     fit-margin-left="0"
     fit-margin-right="0"
     fit-margin-bottom="0"
     inkscape:zoom="4.5974688"
     inkscape:cx="101.385"
     inkscape:cy="56.632987"
     inkscape:window-x="0"
     inkscape:window-y="1"
     inkscape:window-maximized="1"
     inkscape:current-layer="Layer_1" /><style
     type="text/css"
     id="style114"><![CDATA[
	.st0{opacity:0.25;}
	.st1{opacity:0.95;}
	.st2{fill:#848484;}
	.st3{clip-path:url(#SVGID_2_);fill:none;stroke:#000000;stroke-width:3.5;stroke-miterlimit:10;}
	.st4{fill:#F9ED26;}
	.st5{opacity:0.9;}
	.st6{fill:#FEE000;}
	.st7{fill:none;stroke:#000000;stroke-miterlimit:10;}
	.st8{fill:#FFFFFF;}
	.st9{fill:#333333;}
	.st10{fill:#353535;}
]]></style><g
     id="g124"
     transform="translate(-4)"><g
       class="st5"
       id="g122"
       style="opacity:0.9"><g
         id="g120"><g
           id="g118"><path
             class="st6"
             d="M 96.59,0 C 45.451,0 4,41.453 4,92.59 c 0,51.141 41.451,92.592 92.59,92.592 51.141,0 92.591,-41.451 92.591,-92.592 C 189.181,41.453 147.73,0 96.59,0 Z m 26.922,157.939 c -3.336,-5.996 -7.313,-11.58 -11.848,-16.66 l 12.038,-12.531 c 6.72,12.416 3.804,22.842 -0.19,29.191 z m 8.764,-51.572 -27.435,28.002 c -5.036,-4.58 -10.598,-8.592 -16.555,-11.986 l 47.401,-49.338 c 8.489,15.68 1.606,28.201 -3.411,33.322 z m 3.41,-49.336 -57.937,60.555 c -14.399,-6.492 -18.376,-5.801 -22.62,-6.9 -3.918,-1.014 -30.523,17.703 -30.523,17.703 0,0 16.513,-17.407 20.29,-21.389 3.777,-3.984 2.549,-7.902 2.549,-7.902 -0.512,-13.887 9.938,-18.285 15.564,-20.072 5.625,-1.787 19.439,4.578 19.439,4.578 L 138.677,23.68 c 8.684,15.578 1.96,28.175 -2.991,33.351 z"
             id="path116"
             inkscape:connector-curvature="0"
             style="fill:#fee000" /></g></g></g></g></svg>

<?xml version="1.0" encoding="utf-8"?>
<!-- Generator: Adobe Illustrator 16.0.0, SVG Export Plug-In . SVG Version: 6.00 Build 0)  -->
<!DOCTYPE svg PUBLIC "-//W3C//DTD SVG 1.1//EN" "http://www.w3.org/Graphics/SVG/1.1/DTD/svg11.dtd">
<svg version="1.1" id="Layer_1" xmlns="http://www.w3.org/2000/svg" xmlns:xlink="http://www.w3.org/1999/xlink" x="0px" y="0px"
	 width="210.77px" height="257.098px" viewBox="0 0 210.77 257.098" style="enable-background:new 0 0 210.77 257.098;"
	 xml:space="preserve">
<style type="text/css">
<![CDATA[
	.st0{opacity:0.25;}
	.st1{opacity:0.95;}
	.st2{fill:#848484;}
	.st3{clip-path:url(#SVGID_2_);fill:none;stroke:#000000;stroke-width:3.5;stroke-miterlimit:10;}
	.st4{fill:#F9ED26;}
	.st5{opacity:0.9;}
	.st6{fill:#FEE000;}
	.st7{fill:none;stroke:#000000;stroke-miterlimit:10;}
	.st8{fill:#FFFFFF;}
	.st9{fill:#333333;}
	.st10{fill:#353535;}
]]>
</style>
<g>
	<g class="st5">
		<g>
			<g>
				<path class="st6" d="M96.59,0C45.451,0,4,41.453,4,92.59c0,51.141,41.451,92.592,92.59,92.592
					c51.141,0,92.591-41.451,92.591-92.592C189.181,41.453,147.73,0,96.59,0z M123.512,157.939
					c-3.336-5.996-7.313-11.58-11.848-16.66l12.038-12.531C130.422,141.164,127.506,151.59,123.512,157.939z M132.276,106.367
					l-27.435,28.002c-5.036-4.58-10.598-8.592-16.555-11.986l47.401-49.338C144.176,88.725,137.293,101.246,132.276,106.367z
					 M135.686,57.031l-57.937,60.555c-14.399-6.492-18.376-5.801-22.62-6.9c-3.918-1.014-30.523,17.703-30.523,17.703
					S41.119,110.982,44.896,107c3.777-3.984,2.549-7.902,2.549-7.902c-0.512-13.887,9.938-18.285,15.564-20.072
					c5.625-1.787,19.439,4.578,19.439,4.578l56.229-59.924C147.361,39.258,140.637,51.855,135.686,57.031z"/>
			</g>
		</g>
	</g>
	<g>
		<path class="st8" d="M19.484,243.472c-0.04,0.066-0.081,0.115-0.125,0.148c-0.044,0.032-0.101,0.049-0.171,0.049
			c-0.075,0-0.162-0.036-0.261-0.111c-0.099-0.074-0.225-0.157-0.375-0.247c-0.152-0.09-0.335-0.173-0.548-0.247
			c-0.213-0.075-0.471-0.112-0.773-0.112c-0.285,0-0.538,0.038-0.758,0.115s-0.402,0.182-0.55,0.313s-0.258,0.286-0.332,0.465
			c-0.075,0.177-0.112,0.369-0.112,0.576c0,0.263,0.064,0.48,0.194,0.655c0.13,0.173,0.301,0.321,0.514,0.444
			s0.455,0.229,0.725,0.319c0.271,0.09,0.547,0.184,0.83,0.28c0.283,0.096,0.56,0.205,0.829,0.326
			c0.271,0.12,0.512,0.272,0.726,0.457c0.213,0.185,0.384,0.411,0.514,0.679c0.129,0.268,0.194,0.598,0.194,0.988
			c0,0.412-0.07,0.8-0.211,1.163c-0.141,0.361-0.346,0.677-0.616,0.945c-0.27,0.267-0.602,0.478-0.994,0.631
			c-0.394,0.154-0.84,0.231-1.341,0.231c-0.61,0-1.167-0.111-1.67-0.333c-0.503-0.221-0.932-0.521-1.288-0.899l0.369-0.605
			c0.035-0.049,0.078-0.089,0.129-0.122c0.05-0.032,0.106-0.05,0.168-0.05c0.092,0,0.197,0.05,0.316,0.149
			c0.118,0.098,0.267,0.207,0.444,0.326c0.178,0.117,0.393,0.227,0.646,0.325c0.252,0.099,0.561,0.148,0.925,0.148
			c0.304,0,0.573-0.042,0.811-0.125c0.237-0.084,0.438-0.201,0.603-0.354c0.165-0.151,0.291-0.331,0.379-0.543
			c0.088-0.21,0.132-0.445,0.132-0.704c0-0.285-0.064-0.52-0.194-0.702c-0.129-0.182-0.3-0.334-0.51-0.457
			c-0.211-0.123-0.452-0.229-0.722-0.312c-0.271-0.086-0.547-0.175-0.83-0.264c-0.283-0.091-0.56-0.194-0.83-0.313
			c-0.27-0.118-0.51-0.271-0.721-0.461s-0.382-0.426-0.511-0.708c-0.13-0.283-0.194-0.634-0.194-1.051
			c0-0.334,0.064-0.657,0.194-0.969c0.129-0.312,0.317-0.589,0.562-0.829c0.246-0.242,0.551-0.436,0.913-0.58
			s0.778-0.218,1.248-0.218c0.527,0,1.008,0.084,1.442,0.251s0.814,0.408,1.14,0.724L19.484,243.472z"/>
		<path class="st8" d="M31.571,246.719c0,0.707-0.111,1.356-0.335,1.947c-0.225,0.59-0.541,1.1-0.949,1.525s-0.899,0.755-1.472,0.99
			c-0.573,0.235-1.207,0.353-1.9,0.353c-0.694,0-1.326-0.117-1.897-0.353c-0.57-0.235-1.061-0.564-1.469-0.99
			s-0.725-0.936-0.949-1.525c-0.224-0.591-0.335-1.24-0.335-1.947c0-0.706,0.111-1.354,0.335-1.946
			c0.225-0.59,0.541-1.1,0.949-1.528c0.408-0.428,0.898-0.761,1.469-0.998c0.571-0.236,1.203-0.355,1.897-0.355
			c0.693,0,1.327,0.119,1.9,0.355c0.572,0.237,1.063,0.57,1.472,0.998c0.408,0.429,0.725,0.938,0.949,1.528
			C31.46,245.364,31.571,246.013,31.571,246.719z M30.262,246.719c0-0.579-0.08-1.1-0.238-1.561
			c-0.157-0.461-0.382-0.851-0.672-1.17c-0.289-0.317-0.641-0.562-1.054-0.734c-0.413-0.171-0.874-0.257-1.383-0.257
			c-0.506,0-0.964,0.086-1.377,0.257c-0.413,0.172-0.766,0.417-1.058,0.734c-0.292,0.319-0.517,0.709-0.675,1.17
			s-0.237,0.981-0.237,1.561c0,0.58,0.079,1.1,0.237,1.558c0.158,0.459,0.383,0.849,0.675,1.166
			c0.292,0.318,0.645,0.562,1.058,0.731c0.413,0.17,0.871,0.253,1.377,0.253c0.509,0,0.97-0.083,1.383-0.253
			c0.413-0.169,0.765-0.413,1.054-0.731c0.29-0.317,0.515-0.707,0.672-1.166C30.182,247.818,30.262,247.299,30.262,246.719z"/>
		<path class="st8" d="M40.307,241.996v1.041h-4.532v3.3h3.873v1.041h-3.873v4.057h-1.285v-9.438H40.307z"/>
		<path class="st8" d="M49.548,241.996v1.074h-3.05v8.364h-1.277v-8.364h-3.063v-1.074H49.548z"/>
		<path class="st8" d="M51.01,241.996h1.061c0.114,0,0.209,0.029,0.283,0.086s0.126,0.129,0.151,0.217l1.95,6.561
			c0.035,0.119,0.067,0.246,0.096,0.383c0.029,0.136,0.056,0.278,0.082,0.429c0.03-0.15,0.062-0.294,0.092-0.432
			c0.031-0.139,0.066-0.265,0.106-0.38l2.22-6.561c0.026-0.074,0.077-0.144,0.154-0.207s0.17-0.096,0.28-0.096h0.369
			c0.113,0,0.207,0.029,0.279,0.086s0.124,0.129,0.155,0.217l2.206,6.561c0.079,0.229,0.149,0.489,0.211,0.784
			c0.026-0.146,0.051-0.283,0.072-0.414c0.022-0.133,0.051-0.255,0.086-0.37l1.956-6.561c0.022-0.079,0.072-0.149,0.148-0.211
			c0.077-0.061,0.17-0.092,0.28-0.092h0.995l-2.945,9.438h-1.146l-2.392-7.199c-0.049-0.136-0.092-0.294-0.132-0.474
			c-0.021,0.088-0.043,0.172-0.062,0.254c-0.02,0.081-0.04,0.154-0.062,0.22l-2.404,7.199h-1.146L51.01,241.996z"/>
		<path class="st8" d="M73.809,251.435H72.82c-0.114,0-0.206-0.027-0.276-0.084c-0.07-0.058-0.123-0.131-0.158-0.219l-0.883-2.278
			h-4.235l-0.883,2.278c-0.031,0.079-0.083,0.149-0.158,0.211c-0.074,0.062-0.167,0.092-0.276,0.092h-0.988l3.774-9.438h1.298
			L73.809,251.435z M67.623,247.932h3.523l-1.481-3.841c-0.097-0.237-0.191-0.533-0.283-0.89c-0.049,0.181-0.096,0.347-0.142,0.498
			s-0.091,0.284-0.135,0.398L67.623,247.932z"/>
		<path class="st8" d="M77.576,247.497v3.938h-1.272v-9.438h2.668c0.598,0,1.113,0.061,1.548,0.182
			c0.436,0.12,0.794,0.296,1.077,0.523s0.493,0.504,0.629,0.827c0.137,0.322,0.205,0.684,0.205,1.083
			c0,0.334-0.054,0.646-0.159,0.935c-0.104,0.29-0.258,0.551-0.457,0.781c-0.2,0.23-0.443,0.428-0.731,0.59
			s-0.614,0.285-0.978,0.369c0.157,0.092,0.298,0.226,0.421,0.401l2.753,3.747h-1.133c-0.232,0-0.403-0.09-0.514-0.269l-2.45-3.373
			c-0.075-0.105-0.155-0.182-0.243-0.228c-0.089-0.046-0.22-0.068-0.396-0.068H77.576z M77.576,246.567h1.336
			c0.374,0,0.702-0.045,0.985-0.135s0.52-0.218,0.712-0.382c0.19-0.165,0.334-0.361,0.431-0.59s0.146-0.48,0.146-0.757
			c0-0.562-0.186-0.986-0.558-1.271c-0.371-0.286-0.923-0.429-1.656-0.429h-1.396V246.567z"/>
		<path class="st8" d="M91.646,241.996v1.041h-4.532v3.136h3.669v1.001h-3.669v3.221h4.532v1.04h-5.816v-9.438H91.646z"/>
		<path class="st8" d="M104.188,241.996v1.041h-4.532v3.136h3.669v1.001h-3.669v3.221h4.532v1.04h-5.816v-9.438H104.188z"/>
		<path class="st8" d="M108.109,242.039c0.055,0.028,0.117,0.087,0.188,0.175l5.468,7.114c-0.014-0.115-0.022-0.226-0.026-0.333
			c-0.005-0.107-0.007-0.212-0.007-0.312v-6.687h1.119v9.438h-0.645c-0.102,0-0.187-0.017-0.254-0.052
			c-0.068-0.034-0.135-0.095-0.201-0.178l-5.46-7.107c0.008,0.11,0.015,0.218,0.019,0.323c0.005,0.104,0.007,0.201,0.007,0.289
			v6.725h-1.119v-9.438h0.658C107.97,241.996,108.054,242.011,108.109,242.039z"/>
		<path class="st8" d="M122.538,250.507c0.255,0,0.488-0.012,0.702-0.036c0.213-0.024,0.413-0.061,0.603-0.109
			c0.188-0.048,0.366-0.105,0.533-0.175c0.167-0.067,0.334-0.145,0.501-0.233v-2.081h-1.463c-0.084,0-0.15-0.024-0.201-0.072
			c-0.05-0.049-0.075-0.107-0.075-0.178v-0.726h2.898v3.623c-0.237,0.172-0.484,0.321-0.741,0.448s-0.531,0.234-0.823,0.319
			s-0.605,0.149-0.938,0.191c-0.334,0.041-0.696,0.062-1.087,0.062c-0.686,0-1.313-0.117-1.885-0.353
			c-0.57-0.234-1.062-0.563-1.476-0.987c-0.412-0.425-0.733-0.933-0.964-1.525s-0.347-1.246-0.347-1.957
			c0-0.72,0.113-1.376,0.34-1.969c0.226-0.594,0.549-1.102,0.968-1.525c0.42-0.424,0.927-0.751,1.521-0.984
			c0.596-0.233,1.262-0.35,2-0.35c0.373,0,0.72,0.027,1.04,0.082c0.321,0.056,0.618,0.134,0.893,0.237
			c0.275,0.104,0.528,0.229,0.762,0.376c0.232,0.147,0.449,0.313,0.651,0.497l-0.362,0.58c-0.074,0.119-0.172,0.177-0.289,0.177
			c-0.071,0-0.147-0.023-0.231-0.072c-0.109-0.061-0.232-0.135-0.369-0.224c-0.136-0.088-0.302-0.172-0.497-0.254
			c-0.195-0.08-0.426-0.15-0.691-0.207s-0.581-0.086-0.945-0.086c-0.531,0-1.013,0.087-1.442,0.26
			c-0.431,0.174-0.797,0.422-1.101,0.745c-0.303,0.322-0.535,0.714-0.698,1.173c-0.162,0.458-0.243,0.974-0.243,1.544
			c0,0.598,0.084,1.13,0.254,1.599c0.169,0.467,0.406,0.863,0.715,1.188c0.307,0.325,0.672,0.572,1.093,0.743
			C121.563,250.421,122.029,250.507,122.538,250.507z"/>
		<path class="st8" d="M130.687,251.435h-1.278v-9.438h1.278V251.435z"/>
		<path class="st8" d="M135.301,242.039c0.055,0.028,0.116,0.087,0.188,0.175l5.467,7.114c-0.013-0.115-0.021-0.226-0.025-0.333
			c-0.005-0.107-0.007-0.212-0.007-0.312v-6.687h1.119v9.438h-0.646c-0.101,0-0.186-0.017-0.253-0.052
			c-0.068-0.034-0.135-0.095-0.201-0.178l-5.461-7.107c0.009,0.11,0.016,0.218,0.02,0.323c0.005,0.104,0.007,0.201,0.007,0.289
			v6.725h-1.119v-9.438h0.658C135.161,241.996,135.245,242.011,135.301,242.039z"/>
		<path class="st8" d="M151.336,241.996v1.041h-4.531v3.136h3.669v1.001h-3.669v3.221h4.531v1.04h-5.816v-9.438H151.336z"/>
		<path class="st8" d="M160.163,241.996v1.041h-4.532v3.136h3.669v1.001h-3.669v3.221h4.532v1.04h-5.816v-9.438H160.163z"/>
		<path class="st8" d="M164.576,247.497v3.938h-1.271v-9.438h2.667c0.598,0,1.113,0.061,1.549,0.182
			c0.435,0.12,0.794,0.296,1.077,0.523s0.492,0.504,0.629,0.827c0.136,0.322,0.204,0.684,0.204,1.083
			c0,0.334-0.053,0.646-0.158,0.935c-0.105,0.29-0.258,0.551-0.458,0.781c-0.199,0.23-0.443,0.428-0.73,0.59
			c-0.288,0.162-0.614,0.285-0.979,0.369c0.158,0.092,0.299,0.226,0.421,0.401l2.754,3.747h-1.133c-0.232,0-0.404-0.09-0.515-0.269
			l-2.449-3.373c-0.075-0.105-0.156-0.182-0.244-0.228s-0.22-0.068-0.396-0.068H164.576z M164.576,246.567h1.337
			c0.373,0,0.701-0.045,0.985-0.135c0.283-0.09,0.52-0.218,0.711-0.382c0.19-0.165,0.335-0.361,0.432-0.59
			c0.096-0.229,0.145-0.48,0.145-0.757c0-0.562-0.186-0.986-0.557-1.271c-0.371-0.286-0.924-0.429-1.657-0.429h-1.396V246.567z"/>
		<path class="st8" d="M174.345,251.435h-1.278v-9.438h1.278V251.435z"/>
		<path class="st8" d="M178.959,242.039c0.055,0.028,0.117,0.087,0.188,0.175l5.468,7.114c-0.014-0.115-0.021-0.226-0.026-0.333
			s-0.007-0.212-0.007-0.312v-6.687h1.12v9.438h-0.646c-0.102,0-0.186-0.017-0.254-0.052c-0.068-0.034-0.135-0.095-0.201-0.178
			l-5.46-7.107c0.008,0.11,0.015,0.218,0.02,0.323c0.004,0.104,0.006,0.201,0.006,0.289v6.725h-1.119v-9.438h0.658
			C178.819,241.996,178.904,242.011,178.959,242.039z"/>
		<path class="st8" d="M193.388,250.507c0.254,0,0.488-0.012,0.701-0.036s0.414-0.061,0.603-0.109
			c0.188-0.048,0.367-0.105,0.534-0.175c0.166-0.067,0.333-0.145,0.5-0.233v-2.081h-1.462c-0.084,0-0.15-0.024-0.201-0.072
			c-0.05-0.049-0.075-0.107-0.075-0.178v-0.726h2.897v3.623c-0.236,0.172-0.483,0.321-0.74,0.448
			c-0.258,0.127-0.532,0.234-0.824,0.319s-0.604,0.149-0.938,0.191c-0.334,0.041-0.696,0.062-1.087,0.062
			c-0.685,0-1.312-0.117-1.884-0.353c-0.57-0.234-1.062-0.563-1.476-0.987c-0.412-0.425-0.734-0.933-0.965-1.525
			s-0.346-1.246-0.346-1.957c0-0.72,0.113-1.376,0.34-1.969c0.226-0.594,0.548-1.102,0.968-1.525
			c0.419-0.424,0.927-0.751,1.521-0.984c0.596-0.233,1.262-0.35,1.999-0.35c0.373,0,0.72,0.027,1.041,0.082
			c0.32,0.056,0.618,0.134,0.893,0.237s0.528,0.229,0.761,0.376s0.45,0.313,0.652,0.497l-0.362,0.58
			c-0.075,0.119-0.172,0.177-0.29,0.177c-0.07,0-0.147-0.023-0.23-0.072c-0.109-0.061-0.232-0.135-0.369-0.224
			c-0.136-0.088-0.302-0.172-0.497-0.254c-0.195-0.08-0.426-0.15-0.691-0.207c-0.267-0.057-0.581-0.086-0.945-0.086
			c-0.531,0-1.013,0.087-1.442,0.26c-0.431,0.174-0.798,0.422-1.101,0.745c-0.304,0.322-0.535,0.714-0.698,1.173
			c-0.162,0.458-0.244,0.974-0.244,1.544c0,0.598,0.085,1.13,0.254,1.599c0.169,0.467,0.407,0.863,0.715,1.188
			s0.672,0.572,1.094,0.743C192.413,250.421,192.878,250.507,193.388,250.507z"/>
	</g>
	<g>
		<path class="st8" d="M13.886,233.73v-30.95c0-1.005,0.369-1.858,1.107-2.562c0.74-0.703,1.639-1.054,2.695-1.054h22.605v5.928
			H21.28v7.437h14.154v2.312c0,1.005-0.369,1.858-1.107,2.562c-0.74,0.704-1.639,1.055-2.695,1.055H21.28v15.274H13.886z"/>
		<path class="st8" d="M45.618,233.73v-30.95c0-1.005,0.371-1.858,1.109-2.562c0.74-0.703,1.639-1.054,2.695-1.054h3.695V227.3
			h17.748v6.431H45.618z"/>
		<path class="st8" d="M75.45,216.446c0-5.626,1.549-10.081,4.648-13.364c3.309-3.282,7.641-4.923,12.992-4.923
			c5.283,0,9.613,1.641,12.994,4.923c3.17,3.351,4.754,7.806,4.754,13.364c0,5.562-1.584,9.982-4.754,13.265
			c-3.24,3.216-7.57,4.824-12.994,4.824c-5.492,0-9.822-1.608-12.992-4.824C76.999,226.496,75.45,222.074,75.45,216.446z
			 M82.95,216.446c0,3.887,0.881,6.834,2.641,8.844c1.76,2.077,4.262,3.114,7.5,3.114c3.17,0,5.67-1.037,7.502-3.114
			c1.83-2.145,2.746-5.09,2.746-8.844c0-3.751-0.916-6.732-2.746-8.942c-1.832-2.076-4.332-3.115-7.502-3.115
			c-3.238,0-5.74,1.039-7.5,3.115C83.831,209.581,82.95,212.562,82.95,216.446z"/>
		<path class="st8" d="M149.017,221.772c-0.354,4.02-1.938,7.169-4.754,9.446c-2.889,2.21-6.691,3.316-11.408,3.316
			c-5.494,0-9.684-1.574-12.57-4.723c-2.889-3.015-4.332-7.47-4.332-13.366c0-6.029,1.479-10.55,4.438-13.564
			c3.027-3.148,7.395-4.723,13.1-4.723c4.646,0,8.344,1.104,11.09,3.314c2.605,2.146,4.084,5.16,4.438,9.045h-4.541
			c-1.691,0-2.889-0.703-3.592-2.11c-0.494-0.87-1.094-1.642-1.797-2.312c-1.41-1.005-3.275-1.507-5.598-1.507
			c-3.242,0-5.742,1.005-7.502,3.015c-1.689,2.01-2.535,4.958-2.535,8.842c0,3.754,0.846,6.633,2.535,8.642
			c1.619,2.078,4.049,3.116,7.289,3.116c2.254,0,4.121-0.536,5.6-1.608c1.338-1.005,2.287-2.612,2.852-4.823H149.017z"/>
		<path class="st8" d="M162.556,220.438v13.191h-7.502v-30.949c0-1.005,0.371-1.859,1.111-2.562
			c0.738-0.703,1.637-1.056,2.693-1.056h3.697v12.103l12.605-12.103h10.436l-16.979,16.276l18.762,18.291h-11.15L162.556,220.438z"
			/>
		<path class="st8" d="M193.292,228.204h3.592v5.526h-5.809v-3.417C191.075,228.907,191.813,228.204,193.292,228.204z"/>
	</g>
</g>
</svg>
